!!!COM: Bach, Johann Sebastian
!!!CDT: 1685/3//-1750/7/28/
!!!OTL@@DE: Ich dank' dir, lieber Herre
!!!AGN: 4-Part Chorale
!!!SCT: BH 272
!!!SCT: BWV 348
**harm	**root	**kern	**kern	**kern	**kern
!	!	!bass	!tenor	!alto	!soprno
*	*Iorgan	*Iorgan	*Iorgan	*Iorgan	*Iorgan
*M4/4	*M4/4	*M4/4	*M4/4	*M4/4	*M4/4
*met(c)	*met(c)	*met(c)	*met(c)	*met(c)	*met(c)
*MM60	*MM60	*MM60	*MM60	*MM60	*MM60
*k[]	*k[]	*k[]	*k[]	*k[]	*k[]
*C:	*C:	*C:	*C:	*C:	*C:
*>[A,B,B1,B,B2]	*>[A,B,B1,B,B2]	*>[A,B,B1,B,B2]	*>[A,B,B1,B,B2]	*>[A,B,B1,B,B2]	*>[A,B,B1,B,B2]
*>A	*>A	*>A	*>A	*>A	*>A
I	4BB-	8c	4e	4g	4cc
.	.	8B	.	.	.
=1	=1	=1	=1	=1	=1
vi	4GG	4A	8e	4a	4cc
.	.	.	8f	.	.
V7b/IV	4BB-	4E	4g	4b-	4cc
=!|:	=!|:	=!|:	=!|:	=!|:	=!|:
*>B	*>B	*>B	*>B	*>B	*>B
IV	4EE-	4F	8f	4a	4cc
.	.	.	8e	.	.
Vb/V	4CC	4F#	4d	4a	4dd
=2	=2	=2	=2	=2	=2
v	4FF	4G	4d	8a	4b-
.	.	.	.	4g	.
V7/V	4CC	4D	4c	.	4a
.	.	.	.	8f#	.
V;	4FF;	4GG;	4B;	4g;	4g;
Vb	4FF	4BB	4d	4g	4dd
=3	=3	=3	=3	=3	=3
I	4BB-	4C	8c	4g	4ee
.	.	.	8B	.	.
V/V	4CC	4D	4A	4f#	4dd
IVb/V	4BB-	4E	4G	4g	4cc
Vb/V	4CC	4F#	4d	[4d	8b
.	.	.	.	.	8a
=4	=4	=4	=4	=4	=4
I/V	4FF	4G	4d	8d]	4b
.	.	.	.	4g	.
V7/V	4CC	4D	4c	.	4a
.	.	.	.	8f#	.
I/V;	4FF;	4GG;	4B;	4d;	4g;
*>B1	*>B1	*>B1	*>B1	*>B1	*>B1
IVb/V	4BB-	4E	4c	4g	4cc
=1	=1	=1	=1	=1	=1
IV	4EE-	4F	8c	4a	4cc
.	.	.	8d	.	.
I	4BB-	4C	4e	4g	4cc
=:|!	=:|!	=:|!	=:|!	=:|!	=:|!
*>B2	*>B2	*>B2	*>B2	*>B2	*>B2
IVb/V	8BB-	4E	8e	8cc	4gg
iii7	8DD	.	8d	8b	.
=5	=5	=5	=5	=5	=5
IVb	4EE-	4A	8c	4a	4ff
.	.	.	8d	.	.
I	4BB-	4c	8e	8g	4ee
.	.	.	8f	8a	.
V7d	4FF	4F	4g	4b	4dd
Vb/IV	4BB-	4E	4g	8cc	4cc
.	.	.	.	8b-	.
=6	=6	=6	=6	=6	=6
IV	4EE-	4F	2c	4a	8cc
.	.	.	.	.	8dd
I	4BB-	4C	.	4g	4ee
V;	4FF;	4G;	4B;	4g;	4dd;
viiob/ii	4BB	4E	4c#	4g	4ee
!!linebreak: 2
=7	=7	=7	=7	=7	=7
ii	4CC	4D	4.d	4f	4ff
viio7b/IV	8DD	8G	.	8b-	4ee
V/ii	8GG	8A	8c#	[8a	.
vb	4FF	4B-	4d	8a]	4dd
.	.	.	.	8g	.
V/ii	4GG	4A	4e	4a	4cc#
=8	=8	=8	=8	=8	=8
ii;	2.CC;	2.D;	2.f;	2.a;	2.dd;
V7d	4FF	4F	4B	4d	4g
=9	=9	=9	=9	=9	=9
Ib	4BB-	4E	4c	4g	4cc
ii	4CC	4D	4F	8a	4dd
.	.	.	.	8b	.
I	4BB-	4C	8G	4cc	4ee
.	.	.	8g	.	.
-viiob/iii	4CC	4D	[4f	8b	4ff
.	.	.	.	8a	.
=10	=10	=10	=10	=10	=10
iii	4DD	4E	8f]	4g	4gg
.	.	.	8e	.	.
iib	8CC	4F	8d	4a	8ff
IV7	8EE-	.	8c	.	8ee
V;	4FF;	4G;	4g;	4b;	4dd;
IVb	4EE-	4A	4c	4cc	4ff
=11	=11	=11	=11	=11	=11
V7c/IV	4BB-	4G	[4c	4b-	4ee
iib	4CC	2F	8c]	4a	4dd
.	.	.	8d	.	.
V7d	4FF	.	4B	4g	4gg
Ib	8BB-	8E	4c	8g	8cc
ii7b	8CC	8F	.	8a	8dd
=12	=12	=12	=12	=12	=12
Ic	4BB-	4G	4c	8g	4ee
.	.	.	.	[8f	.
V7	4FF	4GG	4B	8f]	4dd
.	.	.	.	8e	.
I;	4BB-;	4C;	4G;	4e;	4cc;
==	==	==	==	==	==
*-	*-	*-	*-	*-	*-
!!!ONB: m.10, b.4 changed from Ib to IVb
!!chor2scor: -l 2 -s 0.6 -o %b.pmx
!!!YEC: Copyright 1994, David Huron
!!!YEC: Changes/Additions 2001 by Craig Stuart Sapp
!!!YEN: United States of America
!!!SMA: 371 Bach Chorales, edited by Ludwig Erk, C.F. Peters
!!!PDT: 1850, 1865
!!!ONB: Harmony and Root analysis done manually
